X:1
T:Title
%%score { 1 | ( 2 3 4 ) }
L:1/8
Q:1/4=120
M:3/4
K:A
V:1 treble nm="Grand Piano"
V:2 bass 
V:3 bass 
V:4 bass 
V:1
 [Ec]6 | B4 [CA]2 | [B,G]3 A [DB]2 | [CA]6 | [DF]6 | [FA]4 [^EB]2 | [Ec]6- | [Ec]6 | [Gd]6 | %9
w: Marvin~A.~Street|||||||||
 [Ge]4 [GB]2 | [Ac]4 [Fd]2 | [Ec]6 | [^DB]6 | [^Dc]4 [DF]2 | [DA]4 [DG]2 |[M:9/8] [DG]8- [DG] | %16
w: |||||||
[M:3/4] [Ec]6 | B4 [CA]2 | [B,G]3 A [DB]2 | [CA]6 | [DF]6 | [FA]4 [^EB]2 | [Ec]6- | [Ec]6 | [Gd]6 | %25
w: |||||||||
 [Ge]4 [GB]2 | [Fd]4 [^EA]2 | [Ec]6 | [Ec]4 [CA]2 | [EG]4 [DB]2 | [CA]6- | [CA]6 | [Ae]6 | [Ec]6 | %34
w: |||||||||
 [Ae]4 [A^d]2 | [Gd]6 | [GB]6 | [Ge]4 [Ed]2 | [Ec]6- | [Ec]6 | c6 | A2 B2 [Ac]2 | [Ad]6 | [A^d]6 | %44
w: ||||||||||
 [Ae]2 [EAc]2 [CEA]2 | [EAc]4 [DGB]2 | [CEA]6- | [CEA]6 |] %48
w: ||||
V:2
 z6 | D4 z2 | z2 z C E,2 | z2 A,2 E,2 | z2 F,2 A,2 | D2 A,2 ^E,2 | z2 C,2 E,2 | A,2 E,2 C,2 | %8
 z2 E,2 B,,2 | G,,2 B,,2 E,2 | z2 A,2 F,2 | C,2 E,2 A,2 | z2 F,2 A,2 | B,2 F,2 ^D,2 | E,6 | %15
[M:9/8] z2 G,,- G,, E,2- E,3 |[M:3/4] z6 | D4 z2 | z2 z C E,2 | z2 A,2 E,2 | z2 F,2 A,2 | %21
 D2 A,2 ^E,2 | z2 C,2 E,2 | A,2 E,2 C,2 | z2 G,,2 B,,2 | E,2 G,2 E2 | D2 A,2 [D,^E,]2 | %27
 [A,,A,]2 E,2 C,2 | [E,,E,]6 | [E,,E,]6 | [A,,,A,,]6- | [A,,,A,,]6 | [A,,C]6 | [A,,A,]6 | %34
 [E,C]4 [E,=C]2 | [E,B,]6 | [E,B,]6 | [E,B,]4 [E,G,]2 | [A,,A,]6- | [A,,A,]6 | [A,E]6 | %41
 [A,CE]2 [G,DE]2 [=G,E]2 | [F,D]6 | [^E,=C]6 | [E,C]2 E,2 E,2 | E,4 E,2 | A,,6- | A,,6 |] %48
V:3
 z2 E,2 A,2 | z2 A,2 E,2 | z2 B,,2 z2 | A,,6 | D,6- | D,6 | A,,6- | A,,6 | E,,6- | E,,6 | A,,6- | %11
 A,,6 | B,,6- | B,,6 | z2 B,,2 G,,2 |[M:9/8] E,,8- E,, |[M:3/4] z2 E,2 A,2 | z2 A,2 E,2 | %18
 z2 B,,2 z2 | A,,6 | D,6- | D,6 | A,,6- | A,,6 | E,,6 | x6 | x6 | x6 | x6 | x6 | x6 | x6 | x6 | %33
 x6 | x6 | x6 | x6 | x6 | x6 | x6 | x6 | x6 | x6 | x6 | x6 | x6 | x6 | x6 |] %48
V:4
 A,,6- | A,,6 | E,,6 | x6 | x6 | x6 | x6 | x6 | x6 | x6 | x6 | x6 | x6 | x6 | x6 |[M:9/8] x9 | %16
[M:3/4] A,,6- | A,,6 | E,,6 | x6 | x6 | x6 | x6 | x6 | x6 | x6 | x6 | x6 | x6 | x6 | x6 | x6 | x6 | %33
 x6 | x6 | x6 | x6 | x6 | x6 | x6 | x6 | x6 | x6 | x6 | x6 | x6 | x6 | x6 |] %48

